X:1
T:Preston (Maclean), 87.87 D
T:Preston (Maclean), 87.87 D
T:Joseph Maclean, 1898
T:Public Domain Courtesy of the Cyber Hymnal™
C:Joseph Maclean, 1898
Z:Public Domain
Z:Courtesy of the Cyber Hymnal™
%%score ( 1 2 ) ( 3 4 )
L:1/8
Q:1/4=100
M:6/4
K:Ab
V:1 treble 
V:2 treble 
V:3 bass 
V:4 bass 
V:1
 [CE]2 | [CE]>[Ec] [Ec][Ec][EB][EA] (A2 G2) [DF]2 | [DE]3 [CE][=DA][DB] [EA]2 !fermata![EG]2 E2 | %3
 [Gd]>[Fd] [Ed][EG][EA][EB] [Ec]4 [Ec]2 | [EB]3 [EG][=DF][DG] [DF]2 !fermata!E2 E2 | %5
 [CF]>[CF] [DF]2 [=Dc]2 [_DB][DG] [DF]2 [DE]2 | c3 [Ee][Fd][Fc] [Ec]2 [DB]2 [EF]2 | %7
 [DF]>[DF] [DF][Fd][Fc][FB] (A2 G2) [_DF]2 | E[EA] d2 [Ec]2 [DB]2 !fermata![CA]2 |] %9
V:2
 x2 | x6 D4 x2 | x10 E2 | x12 | x8 E2 E2 | x12 | (C2 E) x9 | x6 =D4 x2 | E (FE) x7 |] %9
V:3
 [A,,A,]2 | [A,,A,]>[A,,A,] [A,,A,][A,,A,][B,,G,][C,A,] [E,B,]4 [F,B,]2 | %2
 [G,B,]3 A,[F,B,][F,B,] [E,C]2 !fermata![E,B,]2 [E,G,]2 | %3
 [E,B,]>[E,A,] [E,G,][D,B,][C,A,][B,,G,] (A,2 G,2) [=A,,^F,]2 | %4
 [B,,G,]3 [B,,B,][B,,A,][B,,B,] [B,,A,]2 !fermata![E,G,]2 [E,G,]2 | %5
 [E,=A,]>[E,A,] [E,B,]2 [E,_A,]2 [E,G,][E,B,] [F,A,]2 [G,B,]2 | %6
 A,3 [_G,B,][F,=A,][F,A,] [F,A,]2 [B,,B,]2 [C,A,]2 | %7
 [D,B,]>[D,B,] [D,B,][B,,B,][C,=A,][D,B,] (F,2 G,2) [_D,_A,]2 | %8
 [E,C][E,C] (B,G,) [C,A,]2 [E,G,]2 !fermata![A,,A,]2 |] %9
V:4
 x2 | x12 | x3 A, x8 | x6 =A,,4 x2 | x12 | x12 | =A,3 x9 | x6 =D,4 x2 | x2 B,,2 x6 |] %9

